packages/icons/src/emoji/svg/palette-brush.svg

<svg width="120" height="120" viewBox="0 0 120 120" fill="none" xmlns="http://www.w3.org/2000/svg">
<path d="M96.975 26.1095C94.9594 21.347 90.6094 15.1689 86.1188 12.422C75.675 6.00011 62.4 4.76261 50.5594 7.03136C31.9594 10.5939 14.5313 22.622 5.80317 39.572C-0.374959 51.572 -1.64996 69.8626 6.58129 81.3751C11.9532 88.8845 22.6125 91.7251 31.0688 88.2001C36.8157 85.8095 40.3782 80.4845 45.3469 76.997C51.7969 72.4595 58.7907 73.7439 66.2719 73.4532C87.75 72.6376 105.309 45.9001 96.975 26.1095ZM65.3907 57.0845C63.6844 57.7407 61.4438 58.1251 59.6063 57.8532C57.75 57.5626 55.7813 56.2032 54.7969 54.5907C51.375 49.0407 57.0563 42.6189 62.3063 41.222C64.9125 40.5282 68.7375 40.9595 70.8094 42.7501C76.1813 47.3907 70.3219 55.172 65.3907 57.0845Z" fill="#F79329"/>
<path d="M40.7526 20.2408C42.2245 19.0596 44.1183 18.3189 45.8901 18.1689C49.1245 17.8877 51.412 20.7658 51.2808 23.9533C51.1026 27.9846 46.6776 29.9439 42.9839 29.7846C40.1151 29.6627 37.7526 27.0752 38.2308 24.2814C38.5214 22.6502 39.4776 21.2814 40.7526 20.2408Z" fill="#ED6C30"/>
<path d="M15.4599 50.3249C16.5755 45.8343 21.9099 42.9937 25.7067 46.1999C29.3255 49.2468 27.6286 55.2843 23.7942 57.4968C21.2442 58.9687 17.4567 57.9843 15.9849 55.2562C15.1692 53.7468 15.0474 51.9749 15.4599 50.3249Z" fill="#BDCF46"/>
<path d="M26.9343 65.6437C29.0624 69.675 27.6468 75.8906 22.4624 76.3218C17.278 76.7531 14.3812 70.65 15.7218 66.1875C17.0624 61.7437 22.5562 61.0125 25.6499 63.9375C26.1749 64.4343 26.6062 65.0062 26.9343 65.6437Z" fill="#006CA2"/>
<path d="M35.8878 36.994C34.491 39.5627 31.2378 41.8033 28.2285 41.4283C24.4503 40.9596 22.9691 36.4596 24.6097 33.244C26.8597 28.8377 33.9097 27.0752 36.2722 32.494C36.9191 33.9846 36.666 35.5783 35.8878 36.994Z" fill="#FCC21B"/>
<path d="M68.9627 83.0999C64.2283 82.9124 59.1939 85.0687 56.1189 89.0718C52.9314 93.2155 53.0252 98.5218 52.8939 103.491C52.8189 106.191 53.2689 109.959 51.3095 112.153C50.4283 113.137 49.5002 113.344 48.3002 113.494C47.8314 113.55 45.5439 113.194 46.4064 114.506C48.047 117.009 54.1502 117.647 56.7658 117.759C63.797 118.078 70.7158 114.966 75.3564 109.706C75.8345 109.153 76.2939 108.581 76.7252 107.991C80.1845 103.228 82.2095 96.478 79.9877 90.8062C77.9814 85.6968 73.6127 83.278 68.9627 83.0999Z" fill="white"/>
<mask id="mask0_212_587" style="mask-type:luminance" maskUnits="userSpaceOnUse" x="46" y="83" width="35" height="35">
<path d="M68.9627 83.0999C64.2283 82.9124 59.1939 85.0687 56.1189 89.0718C52.9314 93.2155 53.0252 98.5218 52.8939 103.491C52.8189 106.191 53.2689 109.959 51.3095 112.153C50.4283 113.137 49.5002 113.344 48.3002 113.494C47.8314 113.55 45.5439 113.194 46.4064 114.506C48.047 117.009 54.1502 117.647 56.7658 117.759C63.797 118.078 70.7158 114.966 75.3564 109.706C75.8345 109.153 76.2939 108.581 76.7252 107.991C80.1845 103.228 82.2095 96.478 79.9877 90.8062C77.9814 85.6968 73.6127 83.278 68.9627 83.0999Z" fill="white"/>
</mask>
<g mask="url(#mask0_212_587)">
<path d="M60.9849 97.1531C61.088 97.3781 61.1818 97.6687 61.2287 98.0343C61.5193 100.266 63.2255 100.753 65.2505 100.753C67.3037 100.753 69.863 100.303 69.863 103.059C69.8537 104.241 69.2912 105.112 70.4724 105.834C72.2537 106.922 75.6662 106.669 77.3912 105.534C78.4599 104.831 79.9599 104.203 79.2849 106.2C78.8912 107.353 78.1224 108.412 77.5599 109.5C76.9412 110.691 76.163 111.637 75.2255 112.594C74.5412 113.297 74.0724 114.141 73.2849 114.741C71.2693 116.269 68.6443 116.747 66.2912 117.516C63.1412 118.547 60.1318 120.384 56.7568 119.437C53.1849 118.434 49.2943 118.837 45.7787 117.684C44.0443 117.112 42.9662 116.062 43.2287 114.197C43.463 112.594 44.5599 111.994 46.0224 111.675C47.6724 111.309 49.0224 110.869 49.7818 109.219C50.438 107.822 49.988 105.787 49.8943 104.306C49.763 102.291 49.538 100.162 50.0537 98.1843C50.4849 96.5531 50.963 94.9218 51.6755 93.3843C52.0037 92.6625 52.3505 91.7812 52.8755 91.1812C53.6912 90.2437 54.6943 89.8218 55.8005 89.325C56.1474 90.2156 55.4068 91.6312 55.2755 92.5312C55.0599 94.0781 55.1068 95.7375 56.6818 96.3656C58.2099 96.9468 60.2443 95.5968 60.9849 97.1531Z" fill="#ED6C30"/>
</g>
<path d="M86.1847 56.8406C91.5003 50.7281 95.4191 43.425 100.21 36.8813C103.153 32.8688 105.863 28.6313 108.6 24.4969C110.335 21.8813 112.828 17.2969 116.503 17.3625C117.141 17.3719 117.722 17.6438 118.238 18.0094C119.372 18.8156 119.363 20.7563 118.988 21.9563C117.497 26.7844 114.703 31.4063 112.36 35.8688C111.469 37.575 110.56 39.2813 109.613 40.9594C106.847 45.8813 103.96 50.7375 101.41 55.7813C100.416 57.75 99.4784 59.7375 98.6253 61.7625C98.0909 63.0188 97.2659 64.0875 96.9378 65.4C96.6003 66.75 93.5534 62.9531 93.3659 62.6531C92.6722 61.5 92.0347 60.8906 90.7972 60.4781C89.9065 60.1875 85.1347 59.5031 85.5191 57.9844C85.6222 57.5906 85.8659 57.2063 86.1847 56.8406Z" fill="#855C52"/>
<path d="M96.1316 64.0876C95.2316 62.2032 93.4878 61.1438 91.9597 60.2063C91.566 59.9626 91.1722 59.7282 90.816 59.4844C88.3972 57.8251 86.3253 57.4219 84.6566 58.2188C82.1535 59.4188 80.3816 62.5876 78.9472 65.1376C78.5535 65.8313 78.1972 66.4688 77.8691 66.9938C75.1785 71.1844 72.5816 74.4001 67.9878 77.4938L67.5941 77.7469C66.5535 78.4126 65.1285 79.3313 65.016 80.9907C64.9691 81.6938 65.166 82.7532 66.3941 83.7938C67.7347 84.9282 69.2066 85.6219 70.6316 86.2876C71.1378 86.5219 71.6535 86.7657 72.1503 87.0282C73.791 87.8907 75.2816 89.0251 76.866 90.2344L77.8035 90.9376C78.0472 91.1157 78.291 91.3594 78.5535 91.5938C79.2847 92.2782 80.1941 93.1407 81.3753 93.4688C81.7785 93.5813 82.1347 93.6376 82.4535 93.6376C83.7285 93.6376 84.366 92.8501 84.7128 92.4282L84.8535 92.2594C86.2222 90.6563 86.8972 88.5094 87.4878 86.6157C87.7691 85.6969 88.041 84.8251 88.3597 84.0938C88.866 82.9407 89.3441 81.7782 89.8222 80.6157C90.8722 78.0469 91.866 75.6188 93.1503 73.3032C93.4503 72.7501 93.891 72.1782 94.3597 71.5782C95.7378 69.7594 97.641 67.2657 96.1316 64.0876Z" fill="#78A3AD"/>
<mask id="mask1_212_587" style="mask-type:luminance" maskUnits="userSpaceOnUse" x="65" y="57" width="32" height="37">
<path d="M96.1316 64.0876C95.2316 62.2032 93.4878 61.1438 91.9597 60.2063C91.566 59.9626 91.1722 59.7282 90.816 59.4844C88.3972 57.8251 86.3253 57.4219 84.6566 58.2188C82.1535 59.4188 80.3816 62.5876 78.9472 65.1376C78.5535 65.8313 78.1972 66.4688 77.8691 66.9938C75.1785 71.1844 72.5816 74.4001 67.9878 77.4938L67.5941 77.7469C66.5535 78.4126 65.1285 79.3313 65.016 80.9907C64.9691 81.6938 65.166 82.7532 66.3941 83.7938C67.7347 84.9282 69.2066 85.6219 70.6316 86.2876C71.1378 86.5219 71.6535 86.7657 72.1503 87.0282C73.791 87.8907 75.2816 89.0251 76.866 90.2344L77.8035 90.9376C78.0472 91.1157 78.291 91.3594 78.5535 91.5938C79.2847 92.2782 80.1941 93.1407 81.3753 93.4688C81.7785 93.5813 82.1347 93.6376 82.4535 93.6376C83.7285 93.6376 84.366 92.8501 84.7128 92.4282L84.8535 92.2594C86.2222 90.6563 86.8972 88.5094 87.4878 86.6157C87.7691 85.6969 88.041 84.8251 88.3597 84.0938C88.866 82.9407 89.3441 81.7782 89.8222 80.6157C90.8722 78.0469 91.866 75.6188 93.1503 73.3032C93.4503 72.7501 93.891 72.1782 94.3597 71.5782C95.7378 69.7594 97.641 67.2657 96.1316 64.0876Z" fill="white"/>
</mask>
<g mask="url(#mask1_212_587)">
<path d="M87.8539 92.6812C87.1789 92.6812 86.5227 92.3531 86.1008 91.7531C85.6039 91.0125 85.3039 90.2812 85.032 89.6344C84.7883 89.0437 84.582 88.5375 84.2727 88.1344C81.3945 84.4219 77.907 81.8531 72.2258 79.2562C70.5289 78.4781 68.982 78.0938 67.6695 78.0938C66.4977 78.0938 65.5508 77.1469 65.5508 75.9844C65.5508 74.8219 66.4977 73.875 67.6695 73.875C69.5914 73.875 71.7195 74.4 73.9789 75.4219C78.3945 77.4375 83.4758 80.2219 87.6102 85.5562C88.2758 86.4094 88.632 87.2719 88.9414 88.0406C89.157 88.5656 89.3445 89.0156 89.607 89.4C90.2633 90.3656 90.0008 91.6781 89.0445 92.325C88.6695 92.5594 88.257 92.6812 87.8539 92.6812Z" fill="#2F2F2F"/>
</g>
</svg>

<svg xmlns="http://www.w3.org/2000/svg" fill="none" aria-hidden="true" data-slot="icon" viewBox="0 0 120 120"><path fill="#F79329" d="M96.975 26.11c-2.016-4.763-6.366-10.941-10.856-13.688C75.675 6 62.4 4.762 50.559 7.032c-18.6 3.562-36.028 15.59-44.756 32.54-6.178 12-7.453 30.29.778 41.803 5.372 7.51 16.032 10.35 24.488 6.825 5.747-2.39 9.31-7.716 14.278-11.203 6.45-4.537 13.444-3.253 20.925-3.544C87.75 72.638 105.309 45.9 96.975 26.11M65.391 57.085c-1.707.656-3.947 1.04-5.785.768-1.856-.29-3.825-1.65-4.81-3.262-3.421-5.55 2.26-11.972 7.51-13.369 2.606-.694 6.432-.263 8.503 1.528 5.372 4.64-.487 12.422-5.418 14.334"/><path fill="#ED6C30" d="M40.753 20.24c1.471-1.18 3.365-1.921 5.137-2.071 3.234-.281 5.522 2.597 5.39 5.784-.177 4.032-4.602 5.99-8.296 5.832-2.869-.122-5.231-2.71-4.753-5.504.29-1.63 1.247-3 2.522-4.04"/><path fill="#BDCF46" d="M15.46 50.325c1.116-4.49 6.45-7.331 10.247-4.125 3.619 3.047 1.922 9.084-1.913 11.297-2.55 1.472-6.337.487-7.81-2.24-.815-1.51-.937-3.282-.524-4.932"/><path fill="#006CA2" d="M26.934 65.644c2.128 4.031.713 10.247-4.472 10.678-5.184.431-8.08-5.672-6.74-10.135 1.34-4.443 6.834-5.174 9.928-2.25a6.3 6.3 0 0 1 1.284 1.707"/><path fill="#FCC21B" d="M35.888 36.994c-1.397 2.569-4.65 4.81-7.66 4.434-3.778-.468-5.259-4.968-3.618-8.184 2.25-4.406 9.3-6.169 11.662-.75.647 1.49.394 3.084-.384 4.5"/><path fill="#fff" d="M68.963 83.1c-4.735-.188-9.77 1.969-12.844 5.972-3.188 4.144-3.094 9.45-3.225 14.419-.075 2.7.375 6.468-1.584 8.662-.882.984-1.81 1.191-3.01 1.341-.469.056-2.756-.3-1.894 1.012 1.641 2.503 7.744 3.141 10.36 3.253 7.031.319 13.95-2.793 18.59-8.053q.72-.83 1.37-1.715c3.459-4.763 5.484-11.513 3.262-17.185-2.007-5.11-6.375-7.528-11.025-7.706"/><mask id="a" width="35" height="35" x="46" y="83" maskUnits="userSpaceOnUse" style="mask-type:luminance"><path fill="#fff" d="M68.963 83.1c-4.735-.188-9.77 1.969-12.844 5.972-3.188 4.144-3.094 9.45-3.225 14.419-.075 2.7.375 6.468-1.584 8.662-.882.984-1.81 1.191-3.01 1.341-.469.056-2.756-.3-1.894 1.012 1.641 2.503 7.744 3.141 10.36 3.253 7.031.319 13.95-2.793 18.59-8.053q.72-.83 1.37-1.715c3.459-4.763 5.484-11.513 3.262-17.185-2.007-5.11-6.375-7.528-11.025-7.706"/></mask><g mask="url(#a)"><path fill="#ED6C30" d="M60.985 97.153c.103.225.197.516.244.881.29 2.232 1.996 2.719 4.022 2.719 2.053 0 4.612-.45 4.612 2.306-.01 1.182-.572 2.053.61 2.775 1.78 1.088 5.193.835 6.918-.3 1.069-.703 2.569-1.331 1.894.666-.394 1.153-1.163 2.212-1.725 3.3-.619 1.191-1.397 2.137-2.335 3.094-.684.703-1.153 1.547-1.94 2.147-2.016 1.528-4.64 2.006-6.994 2.775-3.15 1.031-6.16 2.868-9.534 1.921-3.572-1.003-7.463-.6-10.978-1.753-1.735-.572-2.813-1.622-2.55-3.487.234-1.603 1.33-2.203 2.793-2.522 1.65-.366 3-.806 3.76-2.456.656-1.397.206-3.432.112-4.913-.131-2.015-.356-4.144.16-6.122.43-1.63.909-3.262 1.621-4.8.329-.722.675-1.603 1.2-2.203.816-.937 1.82-1.36 2.925-1.856.347.89-.393 2.306-.524 3.206-.216 1.547-.17 3.206 1.406 3.835 1.528.58 3.562-.77 4.303.787"/></g><path fill="#855C52" d="M86.185 56.84c5.315-6.112 9.234-13.415 14.025-19.959 2.943-4.012 5.653-8.25 8.39-12.384 1.735-2.616 4.228-7.2 7.903-7.134.638.009 1.219.28 1.735.646 1.134.807 1.125 2.747.75 3.947-1.491 4.828-4.285 9.45-6.628 13.913-.891 1.706-1.8 3.412-2.747 5.09-2.766 4.922-5.653 9.778-8.203 14.822a96 96 0 0 0-2.785 5.982c-.534 1.256-1.36 2.325-1.687 3.637-.338 1.35-3.385-2.447-3.572-2.747-.694-1.153-1.331-1.762-2.569-2.175-.89-.29-5.662-.975-5.278-2.494.103-.393.347-.778.666-1.143"/><path fill="#78A3AD" d="M96.132 64.088c-.9-1.885-2.644-2.944-4.172-3.882-.394-.243-.788-.478-1.144-.722-2.419-1.659-4.49-2.062-6.16-1.265-2.503 1.2-4.274 4.369-5.709 6.919-.394.693-.75 1.33-1.078 1.856-2.69 4.19-5.287 7.406-9.881 10.5l-.394.253c-1.04.666-2.465 1.584-2.578 3.244-.047.703.15 1.762 1.378 2.803 1.34 1.134 2.813 1.828 4.238 2.494a32 32 0 0 1 1.518.74c1.641.863 3.132 1.997 4.716 3.206l.938.704c.243.178.487.421.75.656.73.684 1.64 1.547 2.821 1.875.403.112.76.169 1.079.169 1.275 0 1.912-.788 2.259-1.21l.14-.169c1.37-1.603 2.044-3.75 2.635-5.643.281-.92.553-1.79.872-2.522.506-1.153.984-2.316 1.462-3.478 1.05-2.57 2.044-4.997 3.328-7.313.3-.553.741-1.125 1.21-1.725 1.378-1.819 3.281-4.312 1.772-7.49"/><mask id="b" width="32" height="37" x="65" y="57" maskUnits="userSpaceOnUse" style="mask-type:luminance"><path fill="#fff" d="M96.132 64.088c-.9-1.885-2.644-2.944-4.172-3.882-.394-.243-.788-.478-1.144-.722-2.419-1.659-4.49-2.062-6.16-1.265-2.503 1.2-4.274 4.369-5.709 6.919-.394.693-.75 1.33-1.078 1.856-2.69 4.19-5.287 7.406-9.881 10.5l-.394.253c-1.04.666-2.465 1.584-2.578 3.244-.047.703.15 1.762 1.378 2.803 1.34 1.134 2.813 1.828 4.238 2.494a32 32 0 0 1 1.518.74c1.641.863 3.132 1.997 4.716 3.206l.938.704c.243.178.487.421.75.656.73.684 1.64 1.547 2.821 1.875.403.112.76.169 1.079.169 1.275 0 1.912-.788 2.259-1.21l.14-.169c1.37-1.603 2.044-3.75 2.635-5.643.281-.92.553-1.79.872-2.522.506-1.153.984-2.316 1.462-3.478 1.05-2.57 2.044-4.997 3.328-7.313.3-.553.741-1.125 1.21-1.725 1.378-1.819 3.281-4.312 1.772-7.49"/></mask><g mask="url(#b)"><path fill="#2F2F2F" d="M87.854 92.681a2.14 2.14 0 0 1-1.753-.928c-.497-.74-.797-1.472-1.069-2.119-.244-.59-.45-1.097-.76-1.5-2.878-3.712-6.365-6.28-12.046-8.878-1.697-.778-3.244-1.162-4.556-1.162a2.115 2.115 0 0 1-2.12-2.11c0-1.162.948-2.109 2.12-2.109 1.921 0 4.05.525 6.309 1.547 4.415 2.016 9.497 4.8 13.631 10.134.666.853 1.022 1.716 1.331 2.485.216.525.403.975.666 1.359a2.107 2.107 0 0 1-.562 2.925 2.26 2.26 0 0 1-1.191.356"/></g></svg>
